!!!COM: Mozart
!!!OTL: Zwolf Variationen in Es, uber die Romanze 'Je suis Lindor' aus der Komodie 'Le Barbier de Seville'
!!!Variation: Variation 9 c
**function	**harm	**kern	**kern
*	*	*clefF4	*clefG2
*	*	*k[b-e-a-]	*k[b-e-a-]
*M2/4	*M2/4	*M2/4	*M2/4
*E-:	*E-:	*E-:	*E-:
=207	=207	=207	=207
4.D	4.Vb	8DL 8F	32b-LLL
.	.	.	32bb-
.	.	.	32b-
.	.	.	32bb-JJ
.	.	8DJ 8F	32b-LL
.	.	.	32bb-
.	.	.	32b-
.	.	.	32bb-JJJ
.	.	8DL 8F	32b-LLL
.	.	.	32bb-
.	.	.	32b-
.	.	.	32bb-JJ
8D	8V7c	8FJ 8A-	32b-LL
.	.	.	32bb-
.	.	.	32b-
.	.	.	32bb-JJJ
=208	=208	=208	=208
*	*	*^	*
4D	4V7	(4F 4A-	2BB-	32b-LLL
.	.	.	.	32bb-
.	.	.	.	32b-
.	.	.	.	32bb-JJ
.	.	.	.	32b-LL
.	.	.	.	32bb-
.	.	.	.	32b-
.	.	.	.	32bb-JJJ
4D	4I	8E-L) 8G	.	32b-LLL
.	.	.	.	32bb-
.	.	.	.	32b-
.	.	.	.	32bb-JJ
.	.	8B-J	.	32b-LL
.	.	.	.	32bb-
.	.	.	.	32b-
.	.	.	.	32bb-JJJ
=209	=209	=209	=209	=209
*	*	*v	*v	*
4.D	4.Vb	8B-L	32b-LLL
.	.	.	32bb-
.	.	.	32b-
.	.	.	32bb-JJ
.	.	8DJ 8F	32b-LL
.	.	.	32bb-
.	.	.	32b-
.	.	.	32bb-JJJ
.	.	8DL 8F	32b-LLL
.	.	.	32bb-
.	.	.	32b-
.	.	.	32bb-JJ
8D	V7c	8FJ 8A-	32b-LL
.	.	.	32bb-
.	.	.	32b-
.	.	.	32bb-JJJ
=210	=210	=210	=210
*	*	*^	*
4D	4V7	(4F 4A-	2BB-	32b-LLL
.	.	.	.	32bb-
.	.	.	.	32b-
.	.	.	.	32bb-JJ
.	.	.	.	32b-LL
.	.	.	.	32bb-
.	.	.	.	32b-
.	.	.	.	32bb-JJJ
4D	4I	8E-L) 8G	.	32b-LLL
.	.	.	.	32bb-
.	.	.	.	32b-
.	.	.	.	32bb-JJ
.	.	8B-J	.	32b-LL
.	.	.	.	32bb-
.	.	.	.	32b-
.	.	.	.	32bb-JJJ
=211	=211	=211	=211	=211
2D	2V7c	(8e-	2F 2A-	32b-LLL
.	.	.	.	32bb-
.	.	.	.	32b-
.	.	.	.	32bb-JJ
.	.	4d	.	32b-LL
.	.	.	.	32bb-
.	.	.	.	32b-
.	.	.	.	32bb-JJJ
.	.	.	.	32b-LLL
.	.	.	.	32bb-
.	.	.	.	32b-
.	.	.	.	32bb-JJ
.	.	16cLL	.	32b-LL
.	.	.	.	32bb-
.	.	16B-JJ)	.	32b-
.	.	.	.	32bb-JJJ
=212	=212	=212	=212	=212
2D	2V7c	(8e-	2F 2A-	32b-LLL
.	.	.	.	32bb-
.	.	.	.	32b-
.	.	.	.	32bb-JJ
.	.	4d	.	32b-LL
.	.	.	.	32bb-
.	.	.	.	32b-
.	.	.	.	32bb-JJJ
.	.	.	.	32b-LLL
.	.	.	.	32bb-
.	.	.	.	32b-
.	.	.	.	32bb-JJ
.	.	16cLL	.	32b-LL
.	.	.	.	32bb-
.	.	16B-JJ)	.	32b-
.	.	.	.	32bb-JJJ
*	*	*v	*v	*
=213	=213	=213	=213
4T	4Ib	8G 8e-	8b-'L 8bb-'
.	.	8r	8b'J 8bb'
4P	4IV	8A- 8e-	8cc' 8ccc'
.	.	8r	16r
.	.	.	16aa-'
=214	=214	=214	=214
*	*	*^	*
4D	4Cc	8r	2BB-	(16ggLL
.	.	.	.	16bb-JJ)
.	.	(8G	.	16r
.	.	.	.	16ee-'
4D	4V7	8A-L	.	(16ffLL
.	.	.	.	16aa-JJ)
.	.	8FJ)	.	16r
.	.	.	.	16dd'
*	*	*v	*v	*
=215	=215	=215	=215
2T	2I	8G 8E-	(32ee-LLL
.	.	.	32ff
.	.	.	32gg
.	.	.	32aa-JJ
.	.	8r	32bb-LL
.	.	.	32aa-
.	.	.	32gg
.	.	.	32ffJJJ
.	.	4r	32ee-LLL
.	.	.	32dd
.	.	.	32cc
.	.	.	32b-JJ
.	.	.	32a-LL
.	.	.	32g
.	.	.	32f
.	.	.	32e-JJJ)
*-	*-	*-	*-
